assets/images/payments/klarna-dark.svg

<svg width="100" height="60" viewBox="0 0 100 60" version="1.1" xmlns="http://www.w3.org/2000/svg" xmlns:xlink="http://www.w3.org/1999/xlink"><title>Klarna-dark</title><desc>Created with Sketch.</desc><g id="Dark-Payment-badges" stroke="none" stroke-width="1" fill="none" fill-rule="evenodd" transform="translate(-130.000000, -989.000000)"><g id="Klarna-dark" transform="translate(130.000000, 989.000000)"><rect id="Rectangle" fill="#0074C8" x="0" y="0" width="100" height="60" rx="4"/><path d="M69.20688,30.2739159 C69.23376,32.7502016 69.21712,35.2239159 69.21712,37.6950587 C69.21712,38.2749159 69.14928,38.3404873 68.5592,38.3404873 C67.87696,38.3443444 67.19216,38.3443444 66.50864,38.3404873 C65.97488,38.3404873 65.91472,38.2826302 65.91472,37.7593444 C65.91472,35.3576302 65.9224,32.9572016 65.90704,30.5542016 C65.90704,30.1530587 65.852,29.7506302 65.77904,29.3546302 C65.67536,28.7824873 65.2888,28.4572016 64.73712,28.3659159 C63.73488,28.198773 62.83376,28.5176302 61.99408,29.0370587 C61.88272,29.1064873 61.8392,29.3572016 61.8392,29.5243444 C61.82768,31.5454873 61.83152,33.5666302 61.83152,35.587773 C61.83152,36.3489159 61.82256,37.1074873 61.83536,37.8660587 C61.84176,38.2144873 61.68944,38.3482016 61.35152,38.3443444 C60.59504,38.3302016 59.83856,38.3404873 59.08208,38.3379159 C58.64432,38.3353444 58.524,38.2119159 58.524,37.7632016 C58.52272,33.940773 58.52272,30.1196302 58.524,26.2972016 C58.524,25.894773 58.64432,25.768773 59.04624,25.7662016 C59.72848,25.759773 60.40944,25.7610587 61.0968,25.7649159 C61.52944,25.7674873 61.60368,25.8484873 61.61392,26.2804873 C61.61648,26.4463444 61.63184,26.6096302 61.64208,26.8732016 C61.86608,26.7304873 61.99664,26.650773 62.1272,26.5633444 C63.45968,25.6556302 64.93936,25.4344873 66.492,25.7109159 C67.91408,25.9603444 68.68848,26.9156302 68.97648,28.2720587 C69.12112,28.9290587 69.1992,29.6053444 69.20688,30.2739159 L69.20688,30.2739159 Z" id="Path" fill="#FFF"/><path d="M48.27632,29.4382016 C48.34928,32.2384873 48.3352,35.0439159 48.35184,37.8480587 C48.35312,38.2222016 48.21744,38.3443444 47.83472,38.3469159 C47.17552,38.3494873 46.5176,38.3482016 45.85968,38.3469159 C45.3016,38.3469159 45.23248,38.2774873 45.20432,37.7246302 C45.20176,37.6642016 45.19024,37.6050587 45.17488,37.4880587 C44.79984,37.6976302 44.48112,37.8982016 44.14576,38.0614873 C42.97456,38.6310587 41.75472,38.683773 40.52336,38.3199159 C39.41488,37.9882016 38.73648,37.2219159 38.46512,36.0969159 C38.26928,35.2843444 38.25264,34.4679159 38.4152,33.6592016 C38.66864,32.4069159 39.5096,31.7113444 40.67952,31.3590587 C41.81232,31.0144873 42.9784,30.9759159 44.14832,30.9874873 C44.98544,30.997773 44.98672,30.9900587 44.98416,30.1376302 C44.98416,29.917773 44.99952,29.6914873 44.95984,29.4780587 C44.8344,28.7914873 44.37616,28.3633444 43.62096,28.3633444 C42.35632,28.3633444 41.0904,28.4173444 39.82704,28.4893444 C39.20752,28.5266302 39.1256,28.495773 39.1256,27.8670587 C39.1256,27.4260587 39.13328,26.983773 39.12304,26.5453444 C39.11792,26.299773 39.21392,26.1313444 39.44688,26.0824873 C41.40912,25.6620587 43.3816,25.3714873 45.372,25.867773 C47.16656,26.3113444 48.22768,27.5649159 48.27632,29.4382016 Z M45.06224,35.1236302 C45.0328,34.831773 45.05584,34.5360587 45.05584,34.2403444 C45.05584,33.8610587 45.06992,33.4804873 45.0456,33.1024873 C45.0392,33.0073444 44.90992,32.8414873 44.84208,32.8440587 C44.0792,32.8710587 43.31248,32.8916302 42.55472,32.9854873 C42.09008,33.0446302 41.7496,33.3853444 41.65616,33.850773 C41.56912,34.2866302 41.54352,34.7469159 41.57936,35.1930587 C41.62032,35.6816302 41.97104,35.9670587 42.44976,36.0493444 C43.21904,36.1830587 43.94352,36.0326302 44.66032,35.7536302 C44.9688,35.6353444 45.10064,35.4630587 45.06224,35.1236302 Z" id="Path" fill="#FFF"/><path d="M80.85616,30.1312016 C80.86256,32.6794873 80.86,35.2290587 80.85872,37.7773444 C80.85872,38.2826302 80.796,38.3404873 80.28528,38.3404873 C79.6504,38.3443444 79.01808,38.3443444 78.3832,38.3404873 C77.83792,38.3404873 77.80336,38.3083444 77.7752,37.774773 C77.77264,37.711773 77.76624,37.6513444 77.75344,37.5896302 C77.75088,37.5664873 77.72784,37.5523444 77.69072,37.495773 C77.61136,37.531773 77.5384,37.5549159 77.4808,37.5960587 C76.63088,38.2324873 75.65296,38.4806302 74.61488,38.5616302 C72.56048,38.728773 70.98992,37.3710587 70.89264,35.3036302 C70.86832,34.7944873 70.85552,34.2750587 70.93104,33.7749159 C71.11792,32.5689159 71.85776,31.7679159 72.99824,31.4452016 C73.8584,31.2034873 74.7608,31.1006302 75.6504,30.9952016 C76.16752,30.9322016 76.69872,30.9772016 77.22352,30.9849159 C77.45392,30.9926302 77.56784,30.9129159 77.55504,30.6712016 C77.53584,30.3073444 77.56912,29.9332016 77.50768,29.5732016 C77.37072,28.7696302 76.9176,28.351773 76.10864,28.3543444 C74.85552,28.3620587 73.6024,28.4186302 72.348,28.4893444 C71.71824,28.522773 71.62864,28.4726302 71.62864,27.8220587 C71.62864,27.4183444 71.62992,27.0133444 71.62864,26.6096302 C71.62736,26.2959159 71.76176,26.1210587 72.08176,26.0464873 C73.53968,25.7160587 75.01168,25.5373444 76.5016,25.6312016 C77.12496,25.6710587 77.75856,25.8086302 78.35248,26.0079159 C79.76944,26.4823444 80.55152,27.5289159 80.77936,28.9946302 C80.83696,29.3726302 80.85488,29.7544873 80.85616,30.1312016 Z M77.63184,35.2406302 C77.61648,34.9076302 77.62928,34.5784873 77.62672,34.2493444 C77.62672,33.8970587 77.62032,33.5396302 77.63184,33.184773 C77.63696,32.9430587 77.55376,32.8209159 77.29392,32.8324873 C76.83184,32.842773 76.36464,32.8054873 75.90512,32.8414873 C74.36528,32.9584873 74.08624,33.5332016 74.06704,34.804773 C74.0568,35.5530587 74.40368,35.956773 74.99632,36.0583444 C75.81936,36.1933444 76.58864,36.0223444 77.33744,35.6893444 C77.54096,35.5980587 77.6408,35.4746302 77.63184,35.2406302 Z" id="Path" fill="#FFF"/><path d="M36.03696,21.4269159 L33.91472,21.4269159 C33.38352,21.4282016 33.3336,21.4809159 33.3336,22.0209159 L33.3336,29.8483444 L33.3336,37.8236302 C33.3336,38.2646302 33.40912,38.3379159 33.84176,38.3404873 C34.53552,38.3443444 35.23056,38.3404873 35.92688,38.3404873 C36.58096,38.3404873 36.64112,38.2826302 36.64112,37.6346302 L36.64112,24.220773 C36.64112,23.4853444 36.6424,22.7512016 36.64112,22.015773 C36.63984,21.5156302 36.54768,21.4282016 36.03696,21.4269159 L36.03696,21.4269159 Z" id="Path" fill="#FFF"/><path d="M56.67696,25.615773 C55.72464,25.6569159 54.86448,25.957773 54.09392,26.5170587 C53.98896,26.5942016 53.884,26.6649159 53.72656,26.7780587 C53.71376,26.6019159 53.69968,26.497773 53.69968,26.3923444 C53.68944,25.8652016 53.59728,25.7674873 53.084,25.7674873 C52.42224,25.7649159 51.76688,25.7662016 51.10768,25.7662016 C50.5048,25.7674873 50.40496,25.8652016 50.40496,26.4682016 L50.40496,31.5390587 C50.40496,33.5884873 50.40368,35.6340587 50.40496,37.6770587 C50.40496,38.2196302 50.524,38.3404873 51.03728,38.3404873 C51.73104,38.3443444 52.42864,38.3443444 53.12368,38.3404873 C53.68432,38.3404873 53.77392,38.2556302 53.77392,37.6744873 C53.7752,34.957773 53.77776,32.2372016 53.7688,29.5140587 C53.7688,29.2453444 53.84688,29.0923444 54.09264,28.9753444 C54.90672,28.5909159 55.74128,28.3029159 56.65648,28.3402016 C56.99184,28.3543444 57.1544,28.2270587 57.14672,27.8709159 C57.13264,27.2692016 57.1352,26.6713444 57.14544,26.0709159 C57.14672,25.7430587 57.0008,25.6029159 56.67696,25.615773 L56.67696,25.615773 Z" id="Path" fill="#FFF"/><path d="M22.1336,21.4282016 C21.4872,21.4243444 20.8408,21.421773 20.19312,21.4294873 C19.51472,21.439773 19.13968,21.8280587 19.13968,22.5120587 L19.13968,30.0849159 L19.13968,37.7683444 C19.13968,38.2170587 19.19984,38.2774873 19.64784,38.2774873 C20.30576,38.2826302 20.96496,38.2826302 21.62288,38.2774873 C22.31408,38.2723444 22.66096,37.9264873 22.66096,37.2360587 L22.66096,21.979773 C22.66224,21.5336302 22.5688,21.4320587 22.1336,21.4282016 L22.1336,21.4282016 Z" id="Path" fill="#FFF"/><path d="M29.404,32.9610587 C27.99088,31.4773444 26.25264,30.6609159 24.35696,30.4719159 C23.74512,30.4603444 23.74,30.4603444 23.75664,30.9244873 C23.76304,31.0954873 23.79632,31.2639159 23.82192,31.4336302 C24.16112,33.6900587 25.25936,35.4874873 27.0872,36.8310587 C28.28528,37.7156302 29.6408,38.1746302 31.11664,38.3134873 C31.55568,38.3559159 31.62992,38.3250587 31.5864,37.8930587 C31.39824,36.010773 30.716,34.3406302 29.404,32.9610587 L29.404,32.9610587 Z" id="Path" fill="#FFF"/><path d="M31.12688,21.4693444 C30.9592,21.4963444 30.78512,21.4860587 30.61872,21.511773 C28.69616,21.8190587 27.06416,22.6740587 25.76624,24.1384873 C24.57712,25.4782016 23.91664,27.0583444 23.76048,28.8429159 C23.7208,29.3083444 23.7464,29.3096302 24.23408,29.3726302 C24.90352,29.206773 25.59984,29.1052016 26.23984,28.8609159 C29.436,27.6420587 31.18448,25.2763444 31.58768,21.8820587 C31.63888,21.4513444 31.5672,21.4024873 31.12688,21.4693444 L31.12688,21.4693444 Z" id="Path" fill="#FFF"/></g></g></svg>

<svg width="100" height="60" xmlns="http://www.w3.org/2000/svg"><g fill="none" fill-rule="evenodd"><rect fill="#0074C8" width="100" height="60" rx="4"/><path d="M69.207 30.274c.027 2.476.01 4.95.01 7.421 0 .58-.068.645-.658.645-.682.004-1.367.004-2.05 0-.534 0-.594-.057-.594-.58 0-2.402.007-4.803-.008-7.206a6.65 6.65 0 00-.128-1.2c-.104-.572-.49-.897-1.042-.988-1.002-.167-1.903.152-2.743.671-.111.07-.155.32-.155.487-.011 2.021-.007 4.043-.007 6.064 0 .76-.01 1.52.003 2.278.007.348-.146.482-.483.478-.757-.014-1.513-.004-2.27-.006-.438-.003-.558-.126-.558-.575V26.297c0-.402.12-.528.522-.53.682-.007 1.363-.006 2.05-.002.433.002.508.083.518.515.002.166.018.33.028.593.224-.143.355-.222.485-.31 1.333-.907 2.812-1.129 4.365-.852 1.422.25 2.196 1.205 2.484 2.561.145.657.223 1.333.23 2.002zm-20.931-.836c.073 2.8.06 5.606.076 8.41.001.374-.135.496-.517.499-.66.002-1.317.001-1.975 0-.558 0-.628-.07-.656-.622-.002-.06-.014-.12-.03-.237-.374.21-.693.41-1.028.573-1.171.57-2.391.623-3.623.259-1.108-.332-1.787-1.098-2.058-2.223a5.599 5.599 0 01-.05-2.438c.254-1.252 1.095-1.948 2.265-2.3 1.132-.345 2.298-.383 3.468-.372.837.01.839.003.836-.85 0-.22.016-.446-.024-.659-.126-.687-.584-1.115-1.339-1.115-1.265 0-2.53.054-3.794.126-.62.038-.701.007-.701-.622 0-.44.007-.883-.003-1.322-.005-.245.09-.414.324-.463 1.962-.42 3.935-.71 5.925-.214 1.795.443 2.856 1.697 2.904 3.57zm-3.214 5.686c-.03-.292-.006-.588-.006-.884 0-.379.014-.76-.01-1.138-.007-.095-.136-.26-.204-.258-.763.027-1.53.048-2.287.141-.465.06-.805.4-.899.866a4.911 4.911 0 00-.077 1.342c.041.489.392.774.87.856.77.134 1.495-.016 2.211-.295.309-.119.44-.29.402-.63zm35.794-4.993c.007 2.548.004 5.098.003 7.646 0 .506-.063.563-.574.563-.635.004-1.267.004-1.902 0-.545 0-.58-.032-.608-.565a1.124 1.124 0 00-.022-.185c-.002-.024-.025-.038-.062-.094-.08.036-.153.059-.21.1-.85.636-1.828.885-2.866.966-2.055.167-3.625-1.19-3.722-3.258-.025-.51-.037-1.029.038-1.53.187-1.205.927-2.006 2.067-2.329.86-.242 1.763-.344 2.652-.45.518-.063 1.049-.018 1.574-.01.23.008.344-.072.331-.314-.02-.364.014-.738-.047-1.098-.137-.803-.59-1.221-1.4-1.219a75.039 75.039 0 00-3.76.135c-.63.034-.72-.016-.72-.667 0-.404.002-.809 0-1.212 0-.314.134-.489.454-.564 1.458-.33 2.93-.509 4.42-.415.623.04 1.257.178 1.85.377 1.417.474 2.2 1.52 2.427 2.987.058.378.076.76.077 1.136zm-3.224 5.11c-.016-.333-.003-.663-.005-.992 0-.352-.007-.71.005-1.064.005-.242-.078-.364-.338-.353-.462.01-.93-.027-1.389.01-1.54.116-1.819.691-1.838 1.963-.01.748.337 1.152.93 1.253.822.135 1.592-.036 2.34-.369.204-.09.304-.214.295-.448zM36.037 21.427h-2.122c-.531.001-.581.054-.581.594v15.803c0 .44.075.514.508.516.694.004 1.389 0 2.085 0 .654 0 .714-.057.714-.705v-15.62c-.001-.5-.093-.588-.604-.59zm20.64 4.189a4.646 4.646 0 00-2.583.901c-.105.077-.21.148-.367.261-.013-.176-.027-.28-.027-.386-.01-.527-.103-.625-.616-.625-.662-.002-1.317 0-1.976 0-.603 0-.703.098-.703.701v11.209c0 .543.119.663.632.663.694.004 1.392.004 2.087 0 .56 0 .65-.084.65-.666.001-2.716.004-5.437-.005-8.16 0-.269.078-.422.324-.539.814-.384 1.648-.672 2.563-.635.336.014.498-.113.49-.47a46.96 46.96 0 010-1.8c0-.327-.145-.467-.469-.454zm-34.543-4.188a108.48 108.48 0 00-1.94.001c-.68.01-1.054.4-1.054 1.083v15.256c0 .45.06.51.508.51.658.005 1.317.005 1.975 0 .691-.006 1.038-.352 1.038-1.042V21.98c.001-.446-.092-.548-.527-.552zm7.27 11.533c-1.413-1.484-3.151-2.3-5.047-2.49-.612-.01-.617-.01-.6.453.006.171.04.34.065.51.34 2.256 1.437 4.053 3.265 5.397 1.198.885 2.554 1.344 4.03 1.482.439.043.513.012.47-.42-.189-1.882-.871-3.552-2.183-4.932zm1.723-11.491c-.168.026-.342.016-.508.042-1.923.307-3.555 1.162-4.853 2.626-1.189 1.34-1.85 2.92-2.006 4.705-.04.465-.014.467.474.53.67-.166 1.366-.268 2.006-.512 3.196-1.219 4.944-3.585 5.348-6.979.05-.43-.02-.48-.461-.413z" fill="#FFF"/></g></svg>
